X:449
T:Tomahawk
C:Hank Garland & Tommy Jackson
N:Transcribed by Tristan Scroggins
R:bluegrass
L:1/8
Q:1/4=180
M:4/4
K:C
[A2A2] [AA][AA] [A2A2] [AA][AA] | [A2A2] [AA][AA] [A2A2] [e2e2] |: ze ^c2 e2 c2 | 
A^c eg ^fe df | e2 ^c2 e2 c2 | [e2B2] [eB][eB] [e2B2] [e/^c/]e3/2 | ze ^c2 e2 cB | 
A^c eg ^fe df | ed ^cA BA ^GB |1 [e2A2] [eA][eA] [e3A3]e :|2 [e/A/^G/]A3/2 [eAA][eAA] [e2A2A2] A,2 | 
|: z^C E^F A2 AB | ^cB Ac BA ^FD | E^F A^c BA FD | [EA,]^F [FA,]A [F2A,2] ^G,/A,3/2 | 
K:C#
zC =EF =A2 A=B | c=B =Ac BA F=D | =EF =Ac =BA FE |1 [=A/F/]A3/2 [AA][AA] [A2A2] =A,2 :|2 [=A/F/]A3/2 [AA][AA] [A4A4] | 


